X: 1312
T: Miss Monaghan
R:Reel
N:Collected by Ennis
B:O'Neill's 1312
Z:Transcribed by Trish O'Neil
M:C|
L:1/8
K:D
D2(3FED FAA2|(BcBA FAAB|dedB ABde|fede Tf2e2|
D2(3FED FAA2|(BcBA FAAB|dedB ABdB|AFDFTE2D2||
(fa)ab (af)df|gefd edBc|dedB ABde|fedeTf2e2|
(fa)ab (af)df|gefd edBc|dedB ABdB|AFDFTE2D2||
defg abaf|gfed cAAG|FAdB cdeg|fdgfe2AA|
(de)fg abaf|gfed cAAc|defd ecdB|AFGED2z2|]


